images/photos.svg

<?xml version="1.0" encoding="utf-8"?>
<!-- Generator: Adobe Illustrator 25.2.1, SVG Export Plug-In . SVG Version: 6.00 Build 0)  -->
<svg version="1.1" id="Layer_1" xmlns="http://www.w3.org/2000/svg" xmlns:xlink="http://www.w3.org/1999/xlink" x="0px" y="0px"
	 viewBox="0 0 350 350" style="enable-background:new 0 0 350 350;" xml:space="preserve">
<path d="M87.5,79.5c48.3,0,87.5,39.2,87.5,87.5l0,0v8H8c-4.4,0-8-3.6-8-8C0,118.7,39.2,79.5,87.5,79.5L87.5,79.5z"/>
<path d="M270.5,87.5c0,48.3-39.2,87.5-87.5,87.5h-8V8c0-4.4,3.6-8,8-8l0,0C231.3,0,270.5,39.2,270.5,87.5z"/>
<path d="M262.5,270.5c-48.3,0-87.5-39.2-87.5-87.5l0,0v-8h167c4.4,0,8,3.6,8,8l0,0C350,231.3,310.8,270.5,262.5,270.5L262.5,270.5z"
	/>
<path d="M79.5,262.5c0-48.3,39.2-87.5,87.5-87.5h8v167c0,4.4-3.6,8-8,8l0,0C118.7,350,79.5,310.8,79.5,262.5z"/>
</svg>

<svg version="1.1" xmlns="http://www.w3.org/2000/svg" x="0" y="0" viewBox="0 0 350 350" xml:space="preserve" enable-background="new 0 0 350 350"><path d="M87.5 79.5A87.5 87.5 0 0 1 175 167v8H8a8 8 0 0 1-8-8 87.5 87.5 0 0 1 87.5-87.5zM270.5 87.5A87.5 87.5 0 0 1 183 175h-8V8a8 8 0 0 1 8-8 87.5 87.5 0 0 1 87.5 87.5zM262.5 270.5A87.5 87.5 0 0 1 175 183v-8h167a8 8 0 0 1 8 8 87.5 87.5 0 0 1-87.5 87.5zM79.5 262.5A87.5 87.5 0 0 1 167 175h8v167a8 8 0 0 1-8 8 87.5 87.5 0 0 1-87.5-87.5z"/></svg>
